code/images/jon.svg

<?xml version="1.0" encoding="UTF-8" standalone="no"?> <!-- Created with Vectornator for iOS (http://vectornator.io/) --><!DOCTYPE svg PUBLIC "-//W3C//DTD SVG 1.1//EN" "http://www.w3.org/Graphics/SVG/1.1/DTD/svg11.dtd">
<svg height="100%" style="fill-rule:nonzero;clip-rule:evenodd;stroke-linecap:round;stroke-linejoin:round;" xmlns:xlink="http://www.w3.org/1999/xlink" xmlns="http://www.w3.org/2000/svg" xml:space="preserve" width="100%" xmlns:vectornator="http://vectornator.io" version="1.1" viewBox="0 0 125 125">
<metadata>
<vectornator:setting key="DimensionsVisible" value="1"/>
<vectornator:setting key="PencilOnly" value="0"/>
<vectornator:setting key="SnapToPoints" value="0"/>
<vectornator:setting key="OutlineMode" value="0"/>
<vectornator:setting key="CMYKEnabledKey" value="0"/>
<vectornator:setting key="RulersVisible" value="1"/>
<vectornator:setting key="SnapToEdges" value="0"/>
<vectornator:setting key="GuidesVisible" value="1"/>
<vectornator:setting key="DisplayWhiteBackground" value="0"/>
<vectornator:setting key="doHistoryDisabled" value="0"/>
<vectornator:setting key="SnapToGuides" value="1"/>
<vectornator:setting key="TimeLapseWatermarkDisabled" value="0"/>
<vectornator:setting key="Units" value="Points"/>
<vectornator:setting key="DynamicGuides" value="0"/>
<vectornator:setting key="IsolateActiveLayer" value="0"/>
<vectornator:setting key="SnapToGrid" value="0"/>
</metadata>
<defs/>
<g id="person_18" vectornator:layerName="person_18">
<path stroke="#020202" stroke-width="0.75" d="M77+80.6C77+80.6+76.3+80.3+76.3+79.7L76.3+73L50.3+74.3C50.3+74.3+50.6+82.2+50+82.9C50+82.9+46.9+85.2+47.8+87.1C49.7+91.1+55+93.4+59.1+94.1C64.1+94.9+71.7+94.1+76.1+91.3C79+89.4+80.8+82.3+77+80.6Z" fill="#fce7d4" stroke-linecap="butt" opacity="1" stroke-linejoin="miter"/>
<path stroke="#020202" stroke-width="0.75" d="M81+56.1C81+56.1+80.5+65.3+80.3+66C80+67.3+79.5+68.5+78.8+69.6C77.1+72.2+75.3+74.7+73.3+77.1C72.3+78.1+70.2+81.2+69+81.6C67.1+82.1+65.1+82.4+63.2+82.5C62+82.4+57.4+81.8+56.4+81.2C55.4+80.6+52+76.6+49.2+72.8C46.4+69+44.9+66+44.7+65.1C44.5+63.7+44.5+62.2+44.4+60.8L44+61C44+61+43.9+62+43.1+62.1C41.9+62.3+41.2+60.8+40.9+59.8C40.4+58.3+40.6+56.6+40.1+55C39.6+53.4+37+48.2+39+46.8C40.8+45.6+42.3+47.3+42.9+48.9C43.1+49.4+43.2+50+43.3+50.5L43.6+50.4C43.6+50.4+43.6+47.4+43.6+45.3C43.7+41.4+42.5+37.1+43.9+33.3C48.7+20.9+53.2+20.5+64.3+20.1C74.2+19.8+79.8+27.8+80.5+31.5C81.2+34.5+81.5+37.5+81.4+40.5C81.2+43.2+80.9+50+80.9+50L81.2+50.1C81.6+49+82+47.9+82.5+46.8C82.9+45.9+83.9+45.6+84.8+46C85.6+46.4+85.9+47.3+85.7+48.1C85.4+49.2+84.9+52.2+84.7+53.5C84.6+54.4+84.6+55.3+84.7+56.2C84.7+57+84.4+59.9+83.1+59.9C82.4+59.8+80.6+59.9+81+56.1Z" fill="#fce7d4" stroke-linecap="butt" opacity="1" stroke-linejoin="miter"/>
<path stroke="#000000" stroke-width="0.75" d="M2.72896+125.77C2.72896+125.77+3.02896+124.67+3.72896+121.27C4.42896+117.87+8.92896+106.27+11.329+103.37C13.729+100.47+17.329+98.8698+19.829+97.6698C22.329+96.4698+46.929+83.4698+46.929+83.4698C51.729+86.6698+57.229+88.3698+63.029+88.4698C72.329+88.4698+80.029+82.8698+80.029+82.8698C80.029+82.1698+99.629+94.5698+105.329+97.1698C110.729+99.6698+115.129+103.77+117.929+108.97C120.329+113.47+122.929+125.37+122.929+125.37" fill="#f7a2f4" stroke-linecap="butt" opacity="1" stroke-linejoin="miter"/>
<path stroke="#000000" stroke-width="0.75" d="M47+83.4C47.3+82.8+47.6+82.1+47.7+81.4C47.8+80.5+48+79.7+48.4+78.9C48.8+78.5+50+78.4+50+78.4C50+78.4+49+79.9+49.5+80.4C50.7+81.5+52+82.5+53.4+83.4C55+84.3+61.8+87.8+62.5+88.2C63.2+88.6+62.4+88.7+62+88.7C61.6+88.7+58.5+89.1+57.5+90.2C56.5+91.3+50.2+98.4+50.2+98.4C50.2+98.4+46.5+83.9+47+83.4Z" fill="#b88de7" stroke-linecap="butt" opacity="1" stroke-linejoin="miter"/>
<path stroke="#000000" stroke-width="0.75" d="M76.7+78.1C76.7+78.1+77.5+77.8+77.7+78.4C77.9+79+78.1+80.4+78.1+80.7C79+81.6+79.9+82.4+80.9+83.2L77.9+97.6C77.9+97.6+71.3+92.8+68.8+91.4C66.3+90+62.9+88.6+63+88.4C63.1+88.2+76+81.6+76.6+78.8C76.6+78.7+76.6+78.5+76.6+78.4L76.7+78.1Z" fill="#b88de7" stroke-linecap="butt" opacity="1" stroke-linejoin="miter"/>
<path stroke="#020202" stroke-width="0.75" d="M59.6+89L59.6+125.5" fill="none" stroke-linecap="butt" opacity="1" stroke-linejoin="miter"/>
<path stroke="#020202" stroke-width="0.75" d="M67.8+90.5L67.8+125.5" fill="none" stroke-linecap="butt" opacity="1" stroke-linejoin="miter"/>
<path stroke="#020202" stroke-width="0.75" d="M61.7+103.2C61.7+102.095+62.5954+101.2+63.7+101.2C64.8046+101.2+65.7+102.095+65.7+103.2C65.7+104.305+64.8046+105.2+63.7+105.2C62.5954+105.2+61.7+104.305+61.7+103.2Z" fill="#ffffff" stroke-linecap="butt" opacity="1" stroke-linejoin="miter"/>
<path stroke="#020202" stroke-width="0.75" d="M61.7+119.2C61.7+118.095+62.5954+117.2+63.7+117.2C64.8046+117.2+65.7+118.095+65.7+119.2C65.7+120.305+64.8046+121.2+63.7+121.2C62.5954+121.2+61.7+120.305+61.7+119.2Z" fill="#ffffff" stroke-linecap="butt" opacity="1" stroke-linejoin="miter"/>
<path stroke="#020202" stroke-width="0.75" d="M57.4+46.5C57.4+47.9+56.8+49+56.1+49C55.4+49+54.8+47.9+54.8+46.5C54.8+45.1+54.8+44+56.1+44C57+44+57.4+45.1+57.4+46.5Z" fill="#008e19" stroke-linecap="butt" opacity="1" stroke-linejoin="miter"/>
<path stroke="#020202" stroke-width="0.75" d="M73.6+46C73.6+47.5+73+48.7+72.3+48.7C71.6+48.7+71+47.5+71+46C71+44.5+71+43.3+72.3+43.3C73.2+43.3+73.6+44.5+73.6+46Z" fill="#008e19" stroke-linecap="butt" opacity="1" stroke-linejoin="miter"/>
<path stroke="#020202" stroke-width="0.75" d="M57.2+50.3C56.6+50.9+55.8+51.3+55+51.4C53.9+51.4+52.3+50.8+52+50.1" fill="none" stroke-linecap="butt" opacity="1" stroke-linejoin="miter"/>
<path stroke="#020202" stroke-width="0.75" d="M68.8+50.5C69.7+51.2+70.7+51.6+71.8+51.8C72.8+51.7+73.8+51.1+74.3+50.3" fill="none" stroke-linecap="butt" opacity="1" stroke-linejoin="miter"/>
<path stroke="#020202" stroke-width="0.75" d="M65.2+49.9C65.2+49.9+67.3+58+67.4+58.7C67.5+59.4+68.6+62.1+68.2+62.5C67.8+62.9+67.9+64+67.1+64.1C66.2+64.2+65.2+64.1+64.3+64C63.8+63.9+63.3+63.8+62.9+63.5C62.9+63.5+61.8+63.8+61.4+63.6C61+63.3+60.7+62.8+60.7+62.3C60.9+61.8+61.2+61.4+61.6+61" fill="none" stroke-linecap="butt" opacity="1" stroke-linejoin="miter"/>
<path stroke="#020202" stroke-width="0.75" d="M81+25.2L80.5+25.2C80.8+25.4+81+24.8+80.9+24.4C79.3+19.5+74.9+15.7+70+14C64.8+12.2+57.2+11.7+52.4+14.9C47.9+17.8+44.5+22.2+42.6+27.2C42+28.9+41.6+30.6+40.8+32.2C40.1+33.8+38.9+35.2+37.4+36.1C35.8+36.9+33.8+36.7+32.5+35.4C31.4+38.5+33+42+36.2+43.1C37.4+43.5+38.7+43.6+40+43.2L40.1+46.3C41.6+46.9+42.7+48.1+43.3+49.6C44.4+47.7+44.1+45.2+45+43.1C45.8+41.4+47.6+40.1+47.7+38.2C47.9+35.4+44.5+33+50.9+29.4C51+29.3+51.2+29.3+51.4+29.3C53.6+29.2+55.5+30.6+57.5+31.7C60.8+33.5+64.6+34.2+68.2+33.6C71.9+33+75.2+31+77.5+28C76.7+30.3+76.5+32.8+76.8+35.2C77.2+37.6+78.4+39.8+79.3+42.1C80.3+44+80.9+46.1+81+48.2C81+48.4+81.1+48.5+81.3+48.5C81.4+48.5+81.5+48.4+81.6+48.3C81.9+47.8+82.1+47.2+82.4+46.7C82.8+46+83.1+45.2+83.3+44.5C84.6+40.1+84.4+35.3+82.6+31.1C82.5+30.9+82.4+30.6+82.4+30.3C82.5+29.6+83.4+29.3+84+29.7C84.6+30.1+85+30.6+85.2+31.3C86+29+84.8+26.4+82.5+25.6C82.1+25.3+81.5+25.2+81+25.2L81+25.2Z" fill="#7f500b" stroke-linecap="butt" opacity="1" stroke-linejoin="miter"/>
<path stroke="#020202" stroke-width="0.75" d="M58.0381+70.2618C59.0402+69.9687+60.0379+70.0362+61.0313+70.4642C62.7163+71.0393+64.6573+71.0903+66.3009+70.4999C68.7243+69.6415+69.7558+69.2101+70.2122+70.4638C70.6687+71.7174+69.2931+73.0877+68.6429+74.1062C67.1834+75.5309+65.2588+76.4231+63.2884+76.5103C61.8463+76.493+60.5218+75.9223+59.5371+74.7732C58.0535+73.5904+56.3444+70.4078+58.0381+70.2618Z" fill="#ffffff" stroke-linecap="butt" opacity="1" stroke-linejoin="miter"/>
<path stroke="#020202" stroke-width="0.75" d="M55.4178+39.8518C55.0439+39.104+50.3809+39.5528+50.3809+40.7062" fill="none" stroke-linecap="round" opacity="1" stroke-linejoin="round"/>
<path stroke="#020202" stroke-width="0.75" d="M71.4775+39.3497C72.0542+39.3497+75.4795+39.6466+75.4795+40.732" fill="none" stroke-linecap="round" opacity="1" stroke-linejoin="round"/>
</g>
</svg>

<?xml version="1.0" encoding="utf-8"?>
<!-- Generator: Adobe Illustrator 24.0.3, SVG Export Plug-In . SVG Version: 6.00 Build 0)  -->
<svg version="1.1" id="Layer_1" xmlns="http://www.w3.org/2000/svg" xmlns:xlink="http://www.w3.org/1999/xlink" x="0px" y="0px"
	 viewBox="0 0 125 125" style="enable-background:new 0 0 125 125;" xml:space="preserve">
<style type="text/css">
	.st0{fill:#FCE7D4;stroke:#020202;stroke-width:0.75;stroke-miterlimit:10;}
	.st1{fill:#202133;stroke:#000000;stroke-width:0.75;stroke-miterlimit:10;}
	.st2{fill:none;stroke:#020202;stroke-width:0.75;stroke-miterlimit:10;}
	.st3{fill:#FFFFFF;stroke:#020202;stroke-width:0.75;stroke-miterlimit:10;}
	.st4{fill:#008E19;stroke:#020202;stroke-width:0.75;stroke-miterlimit:10;}
	.st5{fill:#7F500B;stroke:#020202;stroke-width:0.75;stroke-miterlimit:10;}
</style>
<title>Artboard 25</title>
<g id="person_18">
	<path id="neck-2" class="st0" d="M77,80.6c0,0-0.7-0.3-0.7-0.9V73l-26,1.3c0,0,0.3,7.9-0.3,8.6c0,0-3.1,2.3-2.2,4.2
		c1.9,4,7.2,6.3,11.3,7c5,0.8,12.6,0,17-2.8C79,89.4,80.8,82.3,77,80.6z"/>
	<path id="face-2" class="st0" d="M81,56.1c0,0-0.5,9.2-0.7,9.9c-0.3,1.3-0.8,2.5-1.5,3.6c-1.7,2.6-3.5,5.1-5.5,7.5
		c-1,1-3.1,4.1-4.3,4.5c-1.9,0.5-3.9,0.8-5.8,0.9c-1.2-0.1-5.8-0.7-6.8-1.3s-4.4-4.6-7.2-8.4s-4.3-6.8-4.5-7.7
		c-0.2-1.4-0.2-2.9-0.3-4.3L44,61c0,0-0.1,1-0.9,1.1c-1.2,0.2-1.9-1.3-2.2-2.3c-0.5-1.5-0.3-3.2-0.8-4.8S37,48.2,39,46.8
		c1.8-1.2,3.3,0.5,3.9,2.1c0.2,0.5,0.3,1.1,0.4,1.6l0.3-0.1c0,0,0-3,0-5.1c0.1-3.9-1.1-8.2,0.3-12c4.8-12.4,9.3-12.8,20.4-13.2
		c9.9-0.3,15.5,7.7,16.2,11.4c0.7,3,1,6,0.9,9c-0.2,2.7-0.5,9.5-0.5,9.5l0.3,0.1c0.4-1.1,0.8-2.2,1.3-3.3c0.4-0.9,1.4-1.2,2.3-0.8
		c0.8,0.4,1.1,1.3,0.9,2.1c-0.3,1.1-0.8,4.1-1,5.4c-0.1,0.9-0.1,1.8,0,2.7c0,0.8-0.3,3.7-1.6,3.7C82.4,59.8,80.6,59.9,81,56.1z"/>
	<path id="Sweater-4" class="st1" d="M2.8,125.7c0,0,0.3-1.1,1-4.5s5.2-15,7.6-17.9s6-4.5,8.5-5.7S47,83.4,47,83.4
		c4.8,3.2,10.3,4.9,16.1,5c9.3,0,17-5.6,17-5.6c0-0.7,19.6,11.7,25.3,14.3c5.4,2.5,9.8,6.6,12.6,11.8c2.4,4.5,5,16.4,5,16.4"/>
	<path class="st2" d="M44.3,48.4c0.2,4.1,3.6,7.4,7.7,7.2c3.9-0.1,7.1-3.3,7.2-7.2c0-4,1.1-7.2-7.5-7.2
		C44.8,41.2,44.3,44.4,44.3,48.4z"/>
	<path class="st2" d="M79.5,48.2c-0.1,4.1-3.6,7.2-7.6,7.1c-3.8-0.1-6.9-3.2-7.1-7.1c0-3.9-1.1-7.1,7.3-7.1
		C79.1,41.2,79.5,44.3,79.5,48.2z"/>
	<path class="st2" d="M65.1,47c0,0-3.5-1.7-5.8,0"/>
	<path id="Collar-2" class="st1" d="M47,83.4c0.3-0.6,0.6-1.3,0.7-2c0.1-0.9,0.3-1.7,0.7-2.5c0.4-0.4,1.6-0.5,1.6-0.5s-1,1.5-0.5,2
		c1.2,1.1,2.5,2.1,3.9,3c1.6,0.9,8.4,4.4,9.1,4.8s-0.1,0.5-0.5,0.5s-3.5,0.4-4.5,1.5s-7.3,8.2-7.3,8.2S46.5,83.9,47,83.4z"/>
	<path id="collar-3" class="st1" d="M76.7,78.1c0,0,0.8-0.3,1,0.3s0.4,2,0.4,2.3c0.9,0.9,1.8,1.7,2.8,2.5l-3,14.4
		c0,0-6.6-4.8-9.1-6.2s-5.9-2.8-5.8-3s13-6.8,13.6-9.6c0-0.1,0-0.3,0-0.4L76.7,78.1z"/>
	<line class="st2" x1="59.6" y1="89" x2="59.6" y2="125.5"/>
	<line class="st2" x1="67.8" y1="90.5" x2="67.8" y2="125.5"/>
	<circle id="button" class="st3" cx="63.7" cy="103.2" r="2"/>
	<circle id="button-2" class="st3" cx="63.7" cy="119.2" r="2"/>
	<path id="Eye" class="st4" d="M57.4,46.5c0,1.4-0.6,2.5-1.3,2.5s-1.3-1.1-1.3-2.5s0-2.5,1.3-2.5C57,44,57.4,45.1,57.4,46.5z"/>
	<path id="Eye-2" class="st4" d="M73.6,46c0,1.5-0.6,2.7-1.3,2.7s-1.3-1.2-1.3-2.7s0-2.7,1.3-2.7C73.2,43.3,73.6,44.5,73.6,46z"/>
	<path id="undereye" class="st2" d="M57.2,50.3c-0.6,0.6-1.4,1-2.2,1.1c-1.1,0-2.7-0.6-3-1.3"/>
	<path id="undereye-2" class="st2" d="M68.8,50.5c0.9,0.7,1.9,1.1,3,1.3c1-0.1,2-0.7,2.5-1.5"/>
	<path class="st2" d="M65.2,49.9c0,0,2.1,8.1,2.2,8.8s1.2,3.4,0.8,3.8s-0.3,1.5-1.1,1.6c-0.9,0.1-1.9,0-2.8-0.1
		c-0.5-0.1-1-0.2-1.4-0.5c0,0-1.1,0.3-1.5,0.1c-0.4-0.3-0.7-0.8-0.7-1.3c0.2-0.5,0.5-0.9,0.9-1.3"/>
	<path class="st5" d="M81,25.2h-0.5c0.3,0.2,0.5-0.4,0.4-0.8c-1.6-4.9-6-8.7-10.9-10.4c-5.2-1.8-12.8-2.3-17.6,0.9
		c-4.5,2.9-7.9,7.3-9.8,12.3c-0.6,1.7-1,3.4-1.8,5c-0.7,1.6-1.9,3-3.4,3.9c-1.6,0.8-3.6,0.6-4.9-0.7c-1.1,3.1,0.5,6.6,3.7,7.7
		c1.2,0.4,2.5,0.5,3.8,0.1l0.1,3.1c1.5,0.6,2.6,1.8,3.2,3.3c1.1-1.9,0.8-4.4,1.7-6.5c0.8-1.7,2.6-3,2.7-4.9c0.2-2.8-3.2-5.2,3.2-8.8
		c0.1-0.1,0.3-0.1,0.5-0.1c2.2-0.1,4.1,1.3,6.1,2.4c3.3,1.8,7.1,2.5,10.7,1.9c3.7-0.6,7-2.6,9.3-5.6c-0.8,2.3-1,4.8-0.7,7.2
		c0.4,2.4,1.6,4.6,2.5,6.9c1,1.9,1.6,4,1.7,6.1c0,0.2,0.1,0.3,0.3,0.3c0.1,0,0.2-0.1,0.3-0.2c0.3-0.5,0.5-1.1,0.8-1.6
		c0.4-0.7,0.7-1.5,0.9-2.2c1.3-4.4,1.1-9.2-0.7-13.4c-0.1-0.2-0.2-0.5-0.2-0.8c0.1-0.7,1-1,1.6-0.6c0.6,0.4,1,0.9,1.2,1.6
		c0.8-2.3-0.4-4.9-2.7-5.7C82.1,25.3,81.5,25.2,81,25.2L81,25.2z"/>
	<path id="mouth-4" class="st3" d="M54.6,64.6c1,0.3,1.8,0.9,2.4,1.8c1.1,1.4,2.7,2.5,4.4,2.9c2.5,0.6,3.6,0.8,3.3,2.1
		s-2.2,1.7-3.3,2.2c-2,0.4-4.1,0.1-5.8-0.9c-1.2-0.8-2-2-2.2-3.5C52.8,67.4,53.1,63.8,54.6,64.6z"/>
</g>
</svg>
